build/flags/Iran.svg

<svg xmlns="http://www.w3.org/2000/svg" fill="none" viewBox="0 0 28 28" focusable="false"><defs><filter id="Iran_svg__a"><feColorMatrix values="0 0 0 0 1 0 0 0 0 1 0 0 0 0 1 0 0 0 1 0"/></filter></defs><mask id="Iran_svg__b" width="28" height="20" x="0" y="4" maskUnits="userSpaceOnUse"><g filter="url(#Iran_svg__a)"><rect width="28" height="20" y="4" fill="#FFF" rx="3"/><rect width="27.5" height="19.5" x=".25" y="4.25" stroke="#F5F5F5" stroke-width=".5" rx="2.75"/></g></mask><path fill="none" d="M0 0H28V28H0z"/><rect width="28" height="20" y="4" fill="#FFF" rx="3"/><rect width="27.5" height="19.5" x=".25" y="4.25" stroke="#D6D8DD" stroke-width=".5" rx="2.75"/><g mask="url(#Iran_svg__b)"><path fill="#38BB56" fill-rule="evenodd" d="M0 10.6667L28 10.6667L28 4L0 4L0 10.6667Z"/><path d="M28 10.6667L28 4L0 4L0 10.6667L28 10.6667Z"/><path fill="#DE1B27" fill-rule="evenodd" d="M0 24L28 24L28 17.3333L0 17.3333L0 24Z"/><path d="M28 24L28 17.3333L0 17.3333L0 24L28 24Z"/><path fill="#FFF" fill-opacity=".5" fill-rule="evenodd" d="M2.66665 9.66665C2.66665 9.48255 2.51741 9.33331 2.33331 9.33331L1.66665 9.33331C1.48255 9.33331 1.33331 9.48255 1.33331 9.66665L1.33331 10.3333C1.33331 10.5174 1.48255 10.6666 1.66665 10.6666L2.33331 10.6666C2.51741 10.6666 2.66665 10.5174 2.66665 10.3333L2.66665 9.66665ZM5.33331 9.66665C5.33331 9.48255 5.18407 9.33331 4.99998 9.33331L4.33331 9.33331C4.14922 9.33331 3.99998 9.48255 3.99998 9.66665L3.99998 10.3333C3.99998 10.5174 4.14922 10.6666 4.33331 10.6666L4.99998 10.6666C5.18407 10.6666 5.33331 10.5174 5.33331 10.3333L5.33331 9.66665ZM7.99998 9.66665C7.99998 9.48255 7.85074 9.33331 7.66665 9.33331L6.99998 9.33331C6.81589 9.33331 6.66665 9.48255 6.66665 9.66665L6.66665 10.3333C6.66665 10.5174 6.81589 10.6666 6.99998 10.6666L7.66665 10.6666C7.85074 10.6666 7.99998 10.5174 7.99998 10.3333L7.99998 9.66665ZM10.6666 9.66665C10.6666 9.48255 10.5174 9.33331 10.3333 9.33331L9.66665 9.33331C9.48255 9.33331 9.33331 9.48255 9.33331 9.66665L9.33331 10.3333C9.33331 10.5174 9.48255 10.6666 9.66665 10.6666L10.3333 10.6666C10.5174 10.6666 10.6666 10.5174 10.6666 10.3333L10.6666 9.66665ZM13.3333 9.66665C13.3333 9.48255 13.1841 9.33331 13 9.33331L12.3333 9.33331C12.1492 9.33331 12 9.48255 12 9.66665L12 10.3333C12 10.5174 12.1492 10.6666 12.3333 10.6666L13 10.6666C13.1841 10.6666 13.3333 10.5174 13.3333 10.3333L13.3333 9.66665ZM16 9.66665C16 9.48255 15.8507 9.33331 15.6666 9.33331L15 9.33331C14.8159 9.33331 14.6666 9.48255 14.6666 9.66665L14.6666 10.3333C14.6666 10.5174 14.8159 10.6666 15 10.6666L15.6666 10.6666C15.8507 10.6666 16 10.5174 16 10.3333L16 9.66665ZM18.6666 9.66665C18.6666 9.48255 18.5174 9.33331 18.3333 9.33331L17.6666 9.33331C17.4826 9.33331 17.3333 9.48255 17.3333 9.66665L17.3333 10.3333C17.3333 10.5174 17.4826 10.6666 17.6666 10.6666L18.3333 10.6666C18.5174 10.6666 18.6666 10.5174 18.6666 10.3333L18.6666 9.66665ZM21.3333 9.66665C21.3333 9.48255 21.1841 9.33331 21 9.33331L20.3333 9.33331C20.1492 9.33331 20 9.48255 20 9.66665L20 10.3333C20 10.5174 20.1492 10.6666 20.3333 10.6666L21 10.6666C21.1841 10.6666 21.3333 10.5174 21.3333 10.3333L21.3333 9.66665ZM23.6666 9.33331C23.8507 9.33331 24 9.48255 24 9.66665L24 10.3333C24 10.5174 23.8507 10.6666 23.6666 10.6666L23 10.6666C22.8159 10.6666 22.6666 10.5174 22.6666 10.3333L22.6666 9.66665C22.6666 9.48255 22.8159 9.33331 23 9.33331L23.6666 9.33331ZM26.3333 9.33331C26.5174 9.33331 26.6666 9.48255 26.6666 9.66665L26.6666 10.3333C26.6666 10.5174 26.5174 10.6666 26.3333 10.6666L25.6666 10.6666C25.4826 10.6666 25.3333 10.5174 25.3333 10.3333L25.3333 9.66665C25.3333 9.48255 25.4826 9.33331 25.6666 9.33331L26.3333 9.33331ZM2.33331 17.3333C2.51741 17.3333 2.66665 17.4826 2.66665 17.6666L2.66665 18.3333C2.66665 18.5174 2.51741 18.6666 2.33331 18.6666L1.66665 18.6666C1.48255 18.6666 1.33331 18.5174 1.33331 18.3333L1.33331 17.6666C1.33331 17.4826 1.48255 17.3333 1.66665 17.3333L2.33331 17.3333ZM4.99998 17.3333C5.18407 17.3333 5.33331 17.4826 5.33331 17.6666L5.33331 18.3333C5.33331 18.5174 5.18407 18.6666 4.99998 18.6666L4.33331 18.6666C4.14922 18.6666 3.99998 18.5174 3.99998 18.3333L3.99998 17.6666C3.99998 17.4826 4.14922 17.3333 4.33331 17.3333L4.99998 17.3333ZM7.66665 17.3333C7.85074 17.3333 7.99998 17.4826 7.99998 17.6666L7.99998 18.3333C7.99998 18.5174 7.85074 18.6666 7.66665 18.6666L6.99998 18.6666C6.81589 18.6666 6.66665 18.5174 6.66665 18.3333L6.66665 17.6666C6.66665 17.4826 6.81589 17.3333 6.99998 17.3333L7.66665 17.3333ZM10.3333 17.3333C10.5174 17.3333 10.6666 17.4826 10.6666 17.6666L10.6666 18.3333C10.6666 18.5174 10.5174 18.6666 10.3333 18.6666L9.66665 18.6666C9.48255 18.6666 9.33331 18.5174 9.33331 18.3333L9.33331 17.6666C9.33331 17.4826 9.48255 17.3333 9.66665 17.3333L10.3333 17.3333ZM13 17.3333C13.1841 17.3333 13.3333 17.4826 13.3333 17.6666L13.3333 18.3333C13.3333 18.5174 13.1841 18.6666 13 18.6666L12.3333 18.6666C12.1492 18.6666 12 18.5174 12 18.3333L12 17.6666C12 17.4826 12.1492 17.3333 12.3333 17.3333L13 17.3333ZM15.6666 17.3333C15.8507 17.3333 16 17.4826 16 17.6666L16 18.3333C16 18.5174 15.8507 18.6666 15.6666 18.6666L15 18.6666C14.8159 18.6666 14.6666 18.5174 14.6666 18.3333L14.6666 17.6666C14.6666 17.4826 14.8159 17.3333 15 17.3333L15.6666 17.3333ZM18.3333 17.3333C18.5174 17.3333 18.6666 17.4826 18.6666 17.6666L18.6666 18.3333C18.6666 18.5174 18.5174 18.6666 18.3333 18.6666L17.6666 18.6666C17.4826 18.6666 17.3333 18.5174 17.3333 18.3333L17.3333 17.6666C17.3333 17.4826 17.4826 17.3333 17.6666 17.3333L18.3333 17.3333ZM21 17.3333C21.1841 17.3333 21.3333 17.4826 21.3333 17.6666L21.3333 18.3333C21.3333 18.5174 21.1841 18.6666 21 18.6666L20.3333 18.6666C20.1492 18.6666 20 18.5174 20 18.3333L20 17.6666C20 17.4826 20.1492 17.3333 20.3333 17.3333L21 17.3333ZM23.6666 17.3333C23.8507 17.3333 24 17.4826 24 17.6666L24 18.3333C24 18.5174 23.8507 18.6666 23.6666 18.6666L23 18.6666C22.8159 18.6666 22.6666 18.5174 22.6666 18.3333L22.6666 17.6666C22.6666 17.4826 22.8159 17.3333 23 17.3333L23.6666 17.3333ZM26.3333 17.3333C26.5174 17.3333 26.6666 17.4826 26.6666 17.6666L26.6666 18.3333C26.6666 18.5174 26.5174 18.6666 26.3333 18.6666L25.6666 18.6666C25.4826 18.6666 25.3333 18.5174 25.3333 18.3333L25.3333 17.6666C25.3333 17.4826 25.4826 17.3333 25.6666 17.3333L26.3333 17.3333Z"/><path d="M2.66665 9.66665C2.66665 9.48255 2.51741 9.33331 2.33331 9.33331L1.66665 9.33331C1.48255 9.33331 1.33331 9.48255 1.33331 9.66665L1.33331 10.3333C1.33331 10.5174 1.48255 10.6666 1.66665 10.6666L2.33331 10.6666C2.51741 10.6666 2.66665 10.5174 2.66665 10.3333L2.66665 9.66665ZM5.33331 9.66665C5.33331 9.48255 5.18407 9.33331 4.99998 9.33331L4.33331 9.33331C4.14922 9.33331 3.99998 9.48255 3.99998 9.66665L3.99998 10.3333C3.99998 10.5174 4.14922 10.6666 4.33331 10.6666L4.99998 10.6666C5.18407 10.6666 5.33331 10.5174 5.33331 10.3333L5.33331 9.66665ZM7.99998 9.66665C7.99998 9.48255 7.85074 9.33331 7.66665 9.33331L6.99998 9.33331C6.81589 9.33331 6.66665 9.48255 6.66665 9.66665L6.66665 10.3333C6.66665 10.5174 6.81589 10.6666 6.99998 10.6666L7.66665 10.6666C7.85074 10.6666 7.99998 10.5174 7.99998 10.3333L7.99998 9.66665ZM10.6666 9.66665C10.6666 9.48255 10.5174 9.33331 10.3333 9.33331L9.66665 9.33331C9.48255 9.33331 9.33331 9.48255 9.33331 9.66665L9.33331 10.3333C9.33331 10.5174 9.48255 10.6666 9.66665 10.6666L10.3333 10.6666C10.5174 10.6666 10.6666 10.5174 10.6666 10.3333L10.6666 9.66665ZM13.3333 9.66665C13.3333 9.48255 13.1841 9.33331 13 9.33331L12.3333 9.33331C12.1492 9.33331 12 9.48255 12 9.66665L12 10.3333C12 10.5174 12.1492 10.6666 12.3333 10.6666L13 10.6666C13.1841 10.6666 13.3333 10.5174 13.3333 10.3333L13.3333 9.66665ZM16 9.66665C16 9.48255 15.8507 9.33331 15.6666 9.33331L15 9.33331C14.8159 9.33331 14.6666 9.48255 14.6666 9.66665L14.6666 10.3333C14.6666 10.5174 14.8159 10.6666 15 10.6666L15.6666 10.6666C15.8507 10.6666 16 10.5174 16 10.3333L16 9.66665ZM18.6666 9.66665C18.6666 9.48255 18.5174 9.33331 18.3333 9.33331L17.6666 9.33331C17.4826 9.33331 17.3333 9.48255 17.3333 9.66665L17.3333 10.3333C17.3333 10.5174 17.4826 10.6666 17.6666 10.6666L18.3333 10.6666C18.5174 10.6666 18.6666 10.5174 18.6666 10.3333L18.6666 9.66665ZM21.3333 9.66665C21.3333 9.48255 21.1841 9.33331 21 9.33331L20.3333 9.33331C20.1492 9.33331 20 9.48255 20 9.66665L20 10.3333C20 10.5174 20.1492 10.6666 20.3333 10.6666L21 10.6666C21.1841 10.6666 21.3333 10.5174 21.3333 10.3333L21.3333 9.66665ZM23.6666 9.33331C23.8507 9.33331 24 9.48255 24 9.66665L24 10.3333C24 10.5174 23.8507 10.6666 23.6666 10.6666L23 10.6666C22.8159 10.6666 22.6666 10.5174 22.6666 10.3333L22.6666 9.66665C22.6666 9.48255 22.8159 9.33331 23 9.33331L23.6666 9.33331ZM26.3333 9.33331C26.5174 9.33331 26.6666 9.48255 26.6666 9.66665L26.6666 10.3333C26.6666 10.5174 26.5174 10.6666 26.3333 10.6666L25.6666 10.6666C25.4826 10.6666 25.3333 10.5174 25.3333 10.3333L25.3333 9.66665C25.3333 9.48255 25.4826 9.33331 25.6666 9.33331L26.3333 9.33331ZM2.33331 17.3333C2.51741 17.3333 2.66665 17.4826 2.66665 17.6666L2.66665 18.3333C2.66665 18.5174 2.51741 18.6666 2.33331 18.6666L1.66665 18.6666C1.48255 18.6666 1.33331 18.5174 1.33331 18.3333L1.33331 17.6666C1.33331 17.4826 1.48255 17.3333 1.66665 17.3333L2.33331 17.3333ZM4.99998 17.3333C5.18407 17.3333 5.33331 17.4826 5.33331 17.6666L5.33331 18.3333C5.33331 18.5174 5.18407 18.6666 4.99998 18.6666L4.33331 18.6666C4.14922 18.6666 3.99998 18.5174 3.99998 18.3333L3.99998 17.6666C3.99998 17.4826 4.14922 17.3333 4.33331 17.3333L4.99998 17.3333ZM7.66665 17.3333C7.85074 17.3333 7.99998 17.4826 7.99998 17.6666L7.99998 18.3333C7.99998 18.5174 7.85074 18.6666 7.66665 18.6666L6.99998 18.6666C6.81589 18.6666 6.66665 18.5174 6.66665 18.3333L6.66665 17.6666C6.66665 17.4826 6.81589 17.3333 6.99998 17.3333L7.66665 17.3333ZM10.3333 17.3333C10.5174 17.3333 10.6666 17.4826 10.6666 17.6666L10.6666 18.3333C10.6666 18.5174 10.5174 18.6666 10.3333 18.6666L9.66665 18.6666C9.48255 18.6666 9.33331 18.5174 9.33331 18.3333L9.33331 17.6666C9.33331 17.4826 9.48255 17.3333 9.66665 17.3333L10.3333 17.3333ZM13 17.3333C13.1841 17.3333 13.3333 17.4826 13.3333 17.6666L13.3333 18.3333C13.3333 18.5174 13.1841 18.6666 13 18.6666L12.3333 18.6666C12.1492 18.6666 12 18.5174 12 18.3333L12 17.6666C12 17.4826 12.1492 17.3333 12.3333 17.3333L13 17.3333ZM15.6666 17.3333C15.8507 17.3333 16 17.4826 16 17.6666L16 18.3333C16 18.5174 15.8507 18.6666 15.6666 18.6666L15 18.6666C14.8159 18.6666 14.6666 18.5174 14.6666 18.3333L14.6666 17.6666C14.6666 17.4826 14.8159 17.3333 15 17.3333L15.6666 17.3333ZM18.3333 17.3333C18.5174 17.3333 18.6666 17.4826 18.6666 17.6666L18.6666 18.3333C18.6666 18.5174 18.5174 18.6666 18.3333 18.6666L17.6666 18.6666C17.4826 18.6666 17.3333 18.5174 17.3333 18.3333L17.3333 17.6666C17.3333 17.4826 17.4826 17.3333 17.6666 17.3333L18.3333 17.3333ZM21 17.3333C21.1841 17.3333 21.3333 17.4826 21.3333 17.6666L21.3333 18.3333C21.3333 18.5174 21.1841 18.6666 21 18.6666L20.3333 18.6666C20.1492 18.6666 20 18.5174 20 18.3333L20 17.6666C20 17.4826 20.1492 17.3333 20.3333 17.3333L21 17.3333ZM23.6666 17.3333C23.8507 17.3333 24 17.4826 24 17.6666L24 18.3333C24 18.5174 23.8507 18.6666 23.6666 18.6666L23 18.6666C22.8159 18.6666 22.6666 18.5174 22.6666 18.3333L22.6666 17.6666C22.6666 17.4826 22.8159 17.3333 23 17.3333L23.6666 17.3333ZM26.3333 17.3333C26.5174 17.3333 26.6666 17.4826 26.6666 17.6666L26.6666 18.3333C26.6666 18.5174 26.5174 18.6666 26.3333 18.6666L25.6666 18.6666C25.4826 18.6666 25.3333 18.5174 25.3333 18.3333L25.3333 17.6666C25.3333 17.4826 25.4826 17.3333 25.6666 17.3333L26.3333 17.3333Z"/><path fill="none" d="M12.6535 12.5211C12.252 12.8869 12 13.414 12 14C12 15.1045 12.8954 16 14 16C15.1046 16 16 15.1045 16 14C16 13.4251 15.7574 12.9068 15.3691 12.542L12.6535 12.5211Z"/><path fill="#D80915" fill-rule="evenodd" d="M12.9083 13.2337C12.9642 13.1542 13.0289 13.081 13.1025 13.0139L12.6535 12.5211C12.252 12.8869 12 13.414 12 14C12 15.1045 12.8954 16 14 16C15.1046 16 16 15.1045 16 14C16 13.4251 15.7574 12.9068 15.3691 12.542L14.9126 13.0279C14.9841 13.0951 15.047 13.1682 15.1012 13.2473C15.1472 13.3145 15.1869 13.386 15.2204 13.4617C15.2526 13.5346 15.278 13.6092 15.2964 13.6854C15.321 13.7873 15.3333 13.8921 15.3333 14C15.3333 14.1051 15.3216 14.2075 15.2981 14.3071C15.2812 14.3791 15.2581 14.4497 15.2288 14.5188C15.1982 14.5911 15.1619 14.6597 15.1198 14.7246C15.0691 14.8028 15.0101 14.8755 14.9428 14.9428C14.8755 15.0101 14.8028 15.0691 14.7247 15.1198C14.6598 15.1619 14.5911 15.1982 14.5188 15.2288C14.4497 15.258 14.3791 15.2811 14.3071 15.2981C14.2075 15.3216 14.1051 15.3333 14 15.3333C13.8949 15.3333 13.7925 15.3216 13.6929 15.2981C13.6209 15.2811 13.5503 15.258 13.4812 15.2288C13.4089 15.1982 13.3402 15.1619 13.2753 15.1198C13.1972 15.0691 13.1245 15.0101 13.0572 14.9428C12.9899 14.8755 12.9309 14.8028 12.8802 14.7246C12.8381 14.6597 12.8018 14.5911 12.7712 14.5188C12.7419 14.4497 12.7188 14.3791 12.7019 14.3071C12.6784 14.2075 12.6667 14.1051 12.6667 14C12.6667 13.8908 12.6793 13.7847 12.7045 13.6818C12.7236 13.6035 12.7501 13.527 12.7838 13.4523C12.8188 13.3748 12.8603 13.3019 12.9083 13.2337Z"/><rect width="1.333" height="2.667" x="13.333" y="13.333" fill="#D80915" rx=".667"/><rect width="1.333" height="2.667" x="13.333" y="13.333" rx=".667"/></g></svg>

<svg xmlns="http://www.w3.org/2000/svg" fill="none" viewBox="0 0 28 28" focusable="false"><path fill="none" d="M0 0h28v28H0z"/><rect width="28" height="20" y="4" fill="#FFF" rx="3"/><rect width="27.5" height="19.5" x=".25" y="4.25" stroke="#D6D8DD" stroke-width=".5" rx="3"/><mask id="Iran_svg__a" width="28" height="20" x="0" y="4" mask-type="alpha" maskUnits="userSpaceOnUse"><rect width="28" height="20" y="4" fill="#FFF" rx="3"/><rect width="27.5" height="19.5" x=".25" y="4.25" stroke="#F5F5F5" stroke-width=".5" rx="3"/></mask><g mask="url(#Iran_svg__a)"><path fill="#38BB56" fill-rule="evenodd" d="M0 10.66h28V4H0z"/><path d="M28 10.66V4H0v6.66z"/></g><g mask="url(#Iran_svg__a)"><path fill="#DE1B27" fill-rule="evenodd" d="M0 24h28v-6.67H0z"/><path d="M28 24v-6.67H0V24z"/></g><g mask="url(#Iran_svg__a)"><mask id="Iran_svg__b" fill="#fff"><path fill-rule="evenodd" d="M1.667 9.333h.666c.184 0 .334.15.334.334v.666c0 .184-.15.334-.334.334h-.666a.333.333 0 0 1-.334-.334v-.666c0-.184.15-.334.334-.334m2.666 0H5c.184 0 .333.15.333.334v.666c0 .184-.149.334-.333.334h-.667A.333.333 0 0 1 4 10.333v-.666c0-.184.15-.334.333-.334m2.667 0h.667c.184 0 .333.15.333.334v.666c0 .184-.15.334-.333.334H7a.333.333 0 0 1-.333-.334v-.666c0-.184.149-.334.333-.334m2.667 0h.666c.184 0 .334.15.334.334v.666c0 .184-.15.334-.334.334h-.666a.333.333 0 0 1-.334-.334v-.666c0-.184.15-.334.334-.334m2.666 0H13c.184 0 .333.15.333.334v.666c0 .184-.149.334-.333.334h-.667a.333.333 0 0 1-.333-.334v-.666c0-.184.15-.334.333-.334m2.667 0h.667c.184 0 .333.15.333.334v.666c0 .184-.15.334-.333.334H15a.333.333 0 0 1-.333-.334v-.666c0-.184.149-.334.333-.334m2.667 0h.666c.184 0 .334.15.334.334v.666c0 .184-.15.334-.334.334h-.666a.333.333 0 0 1-.334-.334v-.666c0-.184.15-.334.334-.334m2.666 0H21c.184 0 .333.15.333.334v.666c0 .184-.149.334-.333.334h-.667a.333.333 0 0 1-.333-.334v-.666c0-.184.15-.334.333-.334m2.667 0h.667c.184 0 .333.15.333.334v.666c0 .184-.15.334-.333.334H23a.333.333 0 0 1-.333-.334v-.666c0-.184.149-.334.333-.334m2.667 0h.666c.184 0 .334.15.334.334v.666c0 .184-.15.334-.334.334h-.666a.333.333 0 0 1-.334-.334v-.666c0-.184.15-.334.334-.334m-24 8h.666c.184 0 .334.15.334.334v.666c0 .184-.15.334-.334.334h-.666a.333.333 0 0 1-.334-.334v-.666c0-.184.15-.334.334-.334m2.666 0H5c.184 0 .333.15.333.334v.666c0 .184-.149.334-.333.334h-.667A.333.333 0 0 1 4 18.333v-.666c0-.184.15-.334.333-.334m2.667 0h.667c.184 0 .333.15.333.334v.666c0 .184-.15.334-.333.334H7a.333.333 0 0 1-.333-.334v-.666c0-.184.149-.334.333-.334m2.667 0h.666c.184 0 .334.15.334.334v.666c0 .184-.15.334-.334.334h-.666a.333.333 0 0 1-.334-.334v-.666c0-.184.15-.334.334-.334m2.666 0H13c.184 0 .333.15.333.334v.666c0 .184-.149.334-.333.334h-.667a.333.333 0 0 1-.333-.334v-.666c0-.184.15-.334.333-.334m2.667 0h.667c.184 0 .333.15.333.334v.666c0 .184-.15.334-.333.334H15a.333.333 0 0 1-.333-.334v-.666c0-.184.149-.334.333-.334m2.667 0h.666c.184 0 .334.15.334.334v.666c0 .184-.15.334-.334.334h-.666a.333.333 0 0 1-.334-.334v-.666c0-.184.15-.334.334-.334m2.666 0H21c.184 0 .333.15.333.334v.666c0 .184-.149.334-.333.334h-.667a.333.333 0 0 1-.333-.334v-.666c0-.184.15-.334.333-.334m2.667 0h.667c.184 0 .333.15.333.334v.666c0 .184-.15.334-.333.334H23a.333.333 0 0 1-.333-.334v-.666c0-.184.149-.334.333-.334m2.667 0h.666c.184 0 .334.15.334.334v.666c0 .184-.15.334-.334.334h-.666a.333.333 0 0 1-.334-.334v-.666c0-.184.15-.334.334-.334" clip-rule="evenodd"/></mask><path fill="#FFF" fill-opacity=".5" fill-rule="evenodd" d="M1.667 9.333h.666c.184 0 .334.15.334.334v.666c0 .184-.15.334-.334.334h-.666a.333.333 0 0 1-.334-.334v-.666c0-.184.15-.334.334-.334m2.666 0H5c.184 0 .333.15.333.334v.666c0 .184-.149.334-.333.334h-.667A.333.333 0 0 1 4 10.333v-.666c0-.184.15-.334.333-.334m2.667 0h.667c.184 0 .333.15.333.334v.666c0 .184-.15.334-.333.334H7a.333.333 0 0 1-.333-.334v-.666c0-.184.149-.334.333-.334m2.667 0h.666c.184 0 .334.15.334.334v.666c0 .184-.15.334-.334.334h-.666a.333.333 0 0 1-.334-.334v-.666c0-.184.15-.334.334-.334m2.666 0H13c.184 0 .333.15.333.334v.666c0 .184-.149.334-.333.334h-.667a.333.333 0 0 1-.333-.334v-.666c0-.184.15-.334.333-.334m2.667 0h.667c.184 0 .333.15.333.334v.666c0 .184-.15.334-.333.334H15a.333.333 0 0 1-.333-.334v-.666c0-.184.149-.334.333-.334m2.667 0h.666c.184 0 .334.15.334.334v.666c0 .184-.15.334-.334.334h-.666a.333.333 0 0 1-.334-.334v-.666c0-.184.15-.334.334-.334m2.666 0H21c.184 0 .333.15.333.334v.666c0 .184-.149.334-.333.334h-.667a.333.333 0 0 1-.333-.334v-.666c0-.184.15-.334.333-.334m2.667 0h.667c.184 0 .333.15.333.334v.666c0 .184-.15.334-.333.334H23a.333.333 0 0 1-.333-.334v-.666c0-.184.149-.334.333-.334m2.667 0h.666c.184 0 .334.15.334.334v.666c0 .184-.15.334-.334.334h-.666a.333.333 0 0 1-.334-.334v-.666c0-.184.15-.334.334-.334m-24 8h.666c.184 0 .334.15.334.334v.666c0 .184-.15.334-.334.334h-.666a.333.333 0 0 1-.334-.334v-.666c0-.184.15-.334.334-.334m2.666 0H5c.184 0 .333.15.333.334v.666c0 .184-.149.334-.333.334h-.667A.333.333 0 0 1 4 18.333v-.666c0-.184.15-.334.333-.334m2.667 0h.667c.184 0 .333.15.333.334v.666c0 .184-.15.334-.333.334H7a.333.333 0 0 1-.333-.334v-.666c0-.184.149-.334.333-.334m2.667 0h.666c.184 0 .334.15.334.334v.666c0 .184-.15.334-.334.334h-.666a.333.333 0 0 1-.334-.334v-.666c0-.184.15-.334.334-.334m2.666 0H13c.184 0 .333.15.333.334v.666c0 .184-.149.334-.333.334h-.667a.333.333 0 0 1-.333-.334v-.666c0-.184.15-.334.333-.334m2.667 0h.667c.184 0 .333.15.333.334v.666c0 .184-.15.334-.333.334H15a.333.333 0 0 1-.333-.334v-.666c0-.184.149-.334.333-.334m2.667 0h.666c.184 0 .334.15.334.334v.666c0 .184-.15.334-.334.334h-.666a.333.333 0 0 1-.334-.334v-.666c0-.184.15-.334.334-.334m2.666 0H21c.184 0 .333.15.333.334v.666c0 .184-.149.334-.333.334h-.667a.333.333 0 0 1-.333-.334v-.666c0-.184.15-.334.333-.334m2.667 0h.667c.184 0 .333.15.333.334v.666c0 .184-.15.334-.333.334H23a.333.333 0 0 1-.333-.334v-.666c0-.184.149-.334.333-.334m2.667 0h.666c.184 0 .334.15.334.334v.666c0 .184-.15.334-.334.334h-.666a.333.333 0 0 1-.334-.334v-.666c0-.184.15-.334.334-.334" clip-rule="evenodd" mask="url(#Iran_svg__b)"/></g><g mask="url(#Iran_svg__a)"><path fill="none" d="M12.65 12.52c-.4.36-.65.89-.65 1.48a2 2 0 1 0 4 0c0-.58-.25-1.1-.64-1.46z"/><path fill="#D80915" fill-rule="evenodd" d="M12.9 13.23q.09-.12.2-.22l-.45-.49c-.4.36-.65.89-.65 1.48a2 2 0 1 0 4 0c0-.58-.25-1.1-.64-1.46l-.45.48q.1.1.19.22.07.1.12.22.04.11.07.22.04.15.04.32 0 .15-.04.3-.02.11-.07.21-.04.11-.11.21-.07.12-.17.22t-.22.17q-.1.07-.21.11-.1.05-.21.07-.15.04-.3.04-.16 0-.31-.04-.11-.02-.21-.07-.11-.04-.21-.11-.12-.07-.22-.17t-.17-.22q-.07-.1-.11-.21-.05-.1-.07-.21-.04-.15-.04-.3 0-.17.04-.32.03-.12.08-.23.05-.12.12-.22"/></g><g mask="url(#Iran_svg__a)"><rect width="1.333" height="2.667" x="13.333" y="13.333" fill="#D80915" rx=".667"/><rect width="1.333" height="2.667" x="13.333" y="13.333" rx=".667"/></g></svg>
